X:1
T:Red Roadster Rag
T:Tom Brier
T:Red Roadster Rag
C:Tom Brier
%%score { 1 | 2 }
L:1/8
Q:1/4=80
M:2/4
K:G
V:1 treble nm="Piano" snm="Pno."
V:2 bass 
V:1
!mf!"^Moderato""^Swing" D/dB/ AG | d/d'b/ ag | D/dc/ AF | DA, [F,A,D]2 |:{/^C} D/d[=CFB]/- [CFB]2 | %5
{/^c} d/d'[=cfb]/- [cfb]2 |{/^C} D/d[DGB]/- [DGB]2 |{/^c} d/d'[dgb]/- [dgb]2 | %8
 A/B/!courtesy!=c/e/ [Acg]/e/[Acf] | [Ace]/f[Ace]/- [Ace]2 |{/DEF} G/A/B/d/ [GBf]/d/[GBe] | %11
 [GBd]/e/d/B/ GF/=F/ | E/e[D^GB]/- [DGB]2 |{/^d} e/e'[=d^gb]/- [dgb]2 |{/^D} E/e[EAc]/- [EAc]2 | %15
{/^d} e/e'[eac']/- [eac']2 |{/^C} D/!courtesy!=d[DFc]/- [DFc]2 |{/^C} D/d[DFB]/- [DFB]/d/[DFA] |1 %18
 [B,DG]4 | z2 [GBdg]2 :|2 [B,DG]4 | z B AG |:!mp! E/^D/E/F/ G/F/G/A/ | B/^A/B/d/ fe | %24
 e/d/c/^G/ B/!courtesy!=A/F/D/ | E/F/E/^D/ =D/B/A/!courtesy!=G/ | E/^D/E/F/ G/F/G/A/ | %27
 B/^A/B/d/ fe |!mf! ^d/^c/d/f/ dc | B/^A/B/[F!courtesy!=c!courtesy!=d]/- [Fcd]/c/=A/F/ | %30
!mp! E/^D/E/F/ G/F/G/A/ | B/^A/B/d/ fe |{/d^d} e/=d/c/^G/ B/!courtesy!=A/F/D/ | %33
 E/F/E/^D/ =D/!courtesy!=G/A/B/ |!mf! c/[ec'][c_ea]/- [cea]/g/a/^a/ | %35
 [fb]/d/f/=f/ !courtesy!=e<[^gd'e'] |{/^cd^d} e/[c!courtesy!=g]e/ [cg][=c!courtesy!^fa] |1 %37
 [B!courtesy!=dg]B AG :|2 [Bdg]2 [gbd'g']2 ||{/^C} D/d[=CFB]/- [CFB]2 |{/^c} d/d'[=cfb]/- [cfb]2 | %41
{/^C} D/d[DGB]/- [DGB]2 |{/^c} d/d'[dgb]/- [dgb]2 | A/B/!courtesy!=c/e/ [Acg]/e/[Acf] | %44
 [FAce]/[Ff][FAce]/- [FAce]2 |{/DEF} G/A/B/d/ [GBf]/d/[GBe] | [GBd]/e/d/B/ GF/=F/ | %47
 E/e[D^GB]/- [DGB]2 |{/^d} e/e'[=d^gb]/- [dgb]2 |{/^D} E/e[EAc]/- [EAc]2 | %50
{/^d} e/e'[eac']/- [eac']2 |{/^C} D/!courtesy!=d[DFc]/- [DFc]2 |{/^C} D/d[DFB]/- [DFB]/d/[DFA] | %53
 [B,DG]4 | z2 [GBdg]2 |:[K:C] z [cea] [cea][cea]/e/- | [cea]/g/e/[_Bea]/- [Bea]/g/[Be] | %57
 [fad']/c'/a/[fad']/- [fad']/c'/[fa] | [ceg]2 z2 | %59
{/ef^f} [Bg]/[ca]/[Bg]/[A=f]/- [Af]/[Ge]/[Fd]/B/ | [EGc]/B/c/[Gceg]/- [Gceg]/^d/[Gce] | %61
 [A!courtesy!=d^f]/^e/f/[Adfa]/- [Adfa]/[^G^g]/[Aa] | %62
 [!courtesy!=GBd!courtesy!=g]/[^F^f]/[Gg]/[!courtesy!=egbe']/- [egbe']/[^d^d']/[egbe'] | %63
 z{/efg} [Gcea] [Gcea][Gcea]/e/- | [Gcea]/g/e/[_Bea]/- [Bea]/g/[Be]/d/- | %65
 [dfad']/c'/a/[dfad']/- [dfad']/c'/[dfa] | [ceg]2 z2 |{/G^G} A/G/A/B/ c/B/c/d/ | %68
 e/^d/e/g/ [d^fb][dfa] | a/g/!courtesy!=f/[GBe]/- [GBe]/g/[GB!courtesy!=d] |1 [EGc]2 [GBdg]2 :|2 %71
 [EGc]G _GF ||!mp!{/D^D} E/D/E/^F/ !courtesy!=G/F/G/A/ | B/^A/B/d/ ^fe | %74
 e/d/c/^G/ B/!courtesy!=A/^F/D/ | E/^F/E/^D/ =D/B/A/!courtesy!=G/ | %76
 !courtesy!=E/^D/E/^F/ G/F/G/A/ | B/^A/B/d/ ^fe |!mf! ^d/^c/d/^f/ (3d/f/d/c | %79
 B/^A/B/[D^F=A!courtesy!=d]/- [DFAd]/!courtesy!=c/A/F/ |!mp! E/^D/E/^F/ G/F/G/A/ | B/^A/B/d/ ^fe | %82
{/d^d} e/=d/c/^G/ B/!courtesy!=A/^F/D/ | E/^F/E/^D/ =D/!courtesy!=G/A/B/ | %84
!f! c/[ec'][c_ea]/- [cea]/^g/a/^a/ | [^fb]/d/f/=f/ !courtesy!=e<[^gd'e'] | %86
{/^cd^d} e/[c!courtesy!=g]e/ [cg][=c!courtesy!^fa] | [B!courtesy!=dg]2 [gbd'g']2 |] %88
V:2
 D,/DB,/ A,G, |[I:staff -1] D/dB/ AG |[I:staff +1] D,/DC/ A,F, | D,[A,,,A,,] [D,,D,]2 |: %4
 [A,,A,].[F,A,C] [D,,D,].[F,A,C] | [A,,,A,,].[F,A,C] [D,,D,][C,,C,] | %6
 [B,,,B,,].[D,G,B,] [D,,D,].[D,G,B,] | [G,,G,].[D,G,B,] [B,,B,][_B,,_B,]/A,,/- | %8
 [A,,A,].[F,A,C] [D,,D,].[F,A,C]/A,,/- | [A,,A,].[F,A,C] [A,,A,][^A,,^A,] | %10
 [B,,B,].[D,G,B,] [D,,D,].[D,G,B,]/G,,/- | [G,,D,G,].[D,G,B,] [G,,G,]/[B,,B,]/[_B,,_B,]/[A,,A,]/ | %12
 [^G,,^G,].[!courtesy!=B,DE^G] [E,,E,].[B,DEG] | [B,,,B,,].[B,DE^G] [E,,E,][D,,D,] | %14
 [C,,C,].[A,CE] [E,,E,].[A,CE] | [A,,E,A,].[A,CE] [E,,E,][_E,,_E,] | %16
 [D,,A,,D,].[D,F,A,C] [A,,,A,,].[D,F,A,C] | [D,,D,].[D,F,A,C] [F,,F,].[D,F,A,C] |1 %18
 [G,,G,]/D,/E,/D,/- D,/B,,/A,,/B,,/ | G,,[D,,D,] [G,,,G,,] [B,,B,]/[_B,,_B,]/ :|2 %20
 [G,,G,]D,/E,/- E,/D,/B,,/A,,/ | G,,B, A,G, |: E,.[E,A,C] _E,.[E,A,C] | D,.[D,G,B,] _D,.[D,G,_B,] | %24
 !courtesy!=D,.[F,A,C] D,,.[F,A,C] | G,,.[_D,G,_B,] G,,.[=D,G,=B,] | E,.[E,A,C] _E,.[E,A,C] | %27
 D,.[D,G,B,] B,,.[D,G,B,] | B,,.[F,B,^D] [F,,F,].[F,^A,^CE] | %29
 [B,,B,].[F,B,^D] [A,,!courtesy!=A,].[A,!courtesy!=C=D] | E,.[E,A,C] _E,.[E,A,C] | %31
 D,.[D,G,B,] _D,.[D,G,_B,] | !courtesy!=D,.[F,A,C] D,,.[F,A,C] | %33
 G,,.[_D,G,_B,] [G,,=D,].[D,G,=B,]/E,/- | [E,,E,].[G,CE] [_E,,_E,].[G,C_E]/D,,/- | %35
 [D,,D,]/^D,,/-[D,,^D,]/!courtesy!=E,,/- [E,,B,,!courtesy!=E,].[E,^G,B,D] | %36
 [A,,E,A,].[!courtesy!=G,A,^CE] [E,,E,]/[_E,,_E,]/[!courtesy!=D,,!courtesy!=D,] |1 %37
 [G,,D,G,]B, A,G, :|2 G,,[D,,D,] [G,,,G,,] [B,,B,]/[_B,,_B,]/ || [A,,A,].[F,A,C] [D,,D,].[F,A,C] | %40
 [A,,,A,,].[F,A,C] [D,,D,][C,,C,] | [B,,,B,,].[D,G,B,] [D,,D,].[D,G,B,] | %42
 [G,,G,].[D,G,B,] [B,,B,][_B,,_B,]/A,,/- | [A,,A,].[F,A,C] [D,,D,].[F,A,C]/A,,/- | %44
 [A,,A,].[F,A,C] [A,,A,][^A,,^A,] | [B,,B,].[D,G,B,] [D,,D,].[D,G,B,]/G,,/- | %46
 [G,,D,G,].[D,G,B,] [G,,G,]/[B,,B,]/[_B,,_B,]/[A,,A,]/ | %47
 [^G,,^G,].[!courtesy!=B,DE^G] [E,,E,].[B,DEG] | %48
 [B,,,B,,].[B,DE^G]/E,,/- [E,,E,]/D,,/-[D,,D,]/C,,/- | [C,,C,].[A,CE] [E,,E,].[A,CE]/A,,/- | %50
 [A,,E,A,].[A,CE] [E,,E,]/[^D,,^D,]/[E,,E,]/[^E,,^E,]/ | %51
 [F,,F,].[!courtesy!=D,F,A,C] [!courtesy!=D,,D,].[D,F,A,C]/A,,/- | %52
 [A,,D,A,].[D,F,A,C] [D,,D,].[D,F,A,C] | [G,,G,]/D,/E,/D,/- D,/B,,/A,,/B,,/ | %54
 G,,[D,,D,] [G,,G,][G,,,G,,]/C,,/- |:[K:C] [C,,E,].[G,CE] [G,,,G,,].[G,CE]/C,,/- | %56
 [C,,E,].[G,CE] [E,,E,].[G,_B,CE]/F,,/- | [F,,A,].[A,CF] [A,,A,].[A,CF] | %58
 [C,,C,][G,CE] [G,CE][^C,,^C,] | [D,,D,].[G,B,DF] [G,,,G,,].[G,B,DF]/!courtesy!=C,,/- | %60
 [C,,E,].[G,CE] [G,,G,][E,,E,] | [D,,A,,D,].[^F,A,CD] [E,,E,][^F,,F,] | %62
 [G,,G,].[G,B,DF] [A,,A,][B,,B,]/C,/- | [C,G,C].[G,CE] [G,,G,].[G,CE]/C,,/- | %64
 [C,,E,].[G,CE] [E,,E,].[G,_B,CE]/F,,/- | [F,,A,].[A,CF] [A,,A,].[A,CF]/C,,/- | %66
 [C,,E,][G,CE] [G,CE][E,,E,] | [F,,C,F,].[A,CF] [^F,,^F,].[F,A,C_E] | %68
 [G,,G,].[G,C!courtesy!=E] [^F,,^D,].[^F,A,B,^D] | %69
 [G,,E,].[G,B,!courtesy!=DF] [G,,G,].[G,B,DF]/C,/- |1 %70
 [C,E][A,,A,]/[_A,,_A,]/ [G,,G,]/[F,,F,]/[E,,E,]/[D,,D,]/ :|2 [C,C]G, _G,F, || %72
 E,.[E,A,C] _E,.[E,A,C] | D,.[D,G,B,] _D,.[D,G,_B,] | !courtesy!=D,.[^F,A,C] D,,.[F,A,C] | %75
 G,,.[_D,G,_B,] G,,.[=D,G,=B,] | E,.[E,A,C] _E,.[E,A,C] | D,.[D,G,B,] B,,.[D,G,B,] | %78
 [B,,B,].[^F,B,^D] [^F,,F,].[F,^A,^CE] | %79
 [B,,B,][_B,,_B,] [A,,!courtesy!=A,].[A,!courtesy!=C!courtesy!=D] | E,.[E,A,C] _E,.[E,A,C] | %81
 D,.[D,G,B,] _D,.[D,G,_B,] | !courtesy!=D,.[^F,A,C] D,,.[F,A,C] | %83
 G,,.[_D,G,_B,] [G,,=D,G,]/[G,,G,]/[_G,,_G,]/[F,,!courtesy!=F,]/ | %84
 [E,,E,].[!courtesy!=G,CE] [_E,,_E,].[G,C_E]/D,,/- | %85
 [D,,D,]/^D,,/-[D,,^D,]/!courtesy!=E,,/- [E,,B,,!courtesy!=E,].[E,^G,B,D] | %86
 [A,,E,A,].[!courtesy!=G,A,^CE] [E,,E,]/[_E,,_E,]/[!courtesy!=D,,!courtesy!=D,] | %87
 G,,[D,,D,] [G,,,G,,]2 |] %88

